packages/core/src/svgs/perp.svg

<svg width="24" height="24" viewBox="0 0 24 24" fill="none" xmlns="http://www.w3.org/2000/svg">
<g clip-path="url(#clip0_31_15913)">
<path d="M0 0H24V24H0V0Z" fill="url(#paint0_linear_31_15913)"/>
<path fill-rule="evenodd" clip-rule="evenodd" d="M11.2506 18.5335L4.94927 12.4855C4.41998 11.9283 3.92198 10.5158 4.65184 9.83176C4.84984 9.64619 5.18198 9.33891 5.58184 8.96734C6.6147 8.00905 8.10355 6.62734 8.92898 5.83019C9.70041 5.08662 10.6501 4.82862 11.5668 5.65619C12.3179 6.33741 13.0555 7.03341 13.7791 7.74376L12.0211 12.7195L10.3493 14.2812L12.0541 15.9509L11.2506 18.5335ZM6.92455 10.9619L10.3981 7.73391L12.0524 9.35562L8.61998 12.6171L6.92455 10.9619Z" fill="#3BEBAA"/>
<path fill-rule="evenodd" clip-rule="evenodd" d="M10.29 11.0324L13.7165 14.3516L11.2072 16.7311C10.9042 17.0332 10.4803 17.8166 11.2072 18.5345C11.9336 19.2524 12.8109 18.6074 13.1589 18.1951L19.098 12.4621C19.4838 12.0146 20.1802 10.6989 19.2545 9.78478C18.3288 8.87064 17.0885 7.7165 16.5836 7.25364C16.146 6.9035 14.9585 6.51135 13.7105 7.74478C12.462 8.97778 10.9149 10.4576 10.2905 11.0319L10.29 11.0324ZM13.7739 11.0332L15.4856 12.7102L17.1836 11.1215L15.4179 9.45393L13.7739 11.0332Z" fill="#02BCE4"/>
<path d="M13.7776 11.0282L12.0325 12.689L10.2891 11.0282L12.0329 9.37354L13.7776 11.0282Z" fill="#01A5E2"/>
</g>
<defs>
<linearGradient id="paint0_linear_31_15913" x1="4.46486" y1="4.16229" x2="29.2059" y2="32.5787" gradientUnits="userSpaceOnUse">
<stop stop-color="#1A1E21"/>
<stop offset="1" stop-color="#06060A"/>
</linearGradient>
<clipPath id="clip0_31_15913">
<rect width="24" height="24" fill="white"/>
</clipPath>
</defs>
</svg>

<svg xmlns="http://www.w3.org/2000/svg" width="24" height="24" fill="none" viewBox="0 0 24 24"><g clip-path="url(#a)"><path fill="url(#b)" d="M0 0h24v24H0z"/><path fill="#3BEBAA" fill-rule="evenodd" d="m11.25 18.534-6.3-6.048c-.53-.558-1.028-1.97-.298-2.654.198-.186.53-.493.93-.865 1.033-.958 2.522-2.34 3.347-3.137.771-.743 1.721-1.001 2.638-.174a77 77 0 0 1 2.212 2.088l-1.758 4.976-1.672 1.561 1.705 1.67zm-4.325-7.572 3.473-3.228 1.654 1.622-3.432 3.261z" clip-rule="evenodd"/><path fill="#02BCE4" fill-rule="evenodd" d="m10.29 11.032 3.427 3.32-2.51 2.38c-.303.301-.727 1.085 0 1.803.727.717 1.604.072 1.952-.34l5.939-5.733c.386-.447 1.082-1.763.157-2.677a117 117 0 0 0-2.671-2.531c-.438-.35-1.625-.743-2.873.49a173 173 0 0 1-3.42 3.288zm3.484.001 1.712 1.677 1.698-1.589-1.766-1.667z" clip-rule="evenodd"/><path fill="#01A5E2" d="m13.778 11.028-1.745 1.661-1.744-1.66 1.744-1.655z"/></g><defs><linearGradient id="b" x1="4.465" x2="29.206" y1="4.162" y2="32.579" gradientUnits="userSpaceOnUse"><stop stop-color="#1A1E21"/><stop offset="1" stop-color="#06060A"/></linearGradient><clipPath id="a"><path fill="#fff" d="M0 0h24v24H0z"/></clipPath></defs></svg>
